figures-source/5.14.svg

<svg xmlns:rdf="http://www.w3.org/1999/02/22-rdf-syntax-ns#" xmlns="http://www.w3.org/2000/svg" height="339" width="553.97" version="1.1" xmlns:cc="http://creativecommons.org/ns#" xmlns:dc="http://purl.org/dc/elements/1.1/">
 <metadata>
  <rdf:RDF>
   <cc:Work rdf:about="">
    <dc:format>image/svg+xml</dc:format>
    <dc:type rdf:resource="http://purl.org/dc/dcmitype/StillImage"/>
    <dc:title/>
   </cc:Work>
  </rdf:RDF>
 </metadata>
 <defs>
  <marker id="Arrow1Lend" refY="0" refX="0" orient="auto">
   <path style="marker-start:none;" d="m-10,0,0-2,10,2-10,2z" fill-rule="evenodd" stroke="#000" stroke-width="1px"/>
  </marker>
 </defs>
 <g transform="translate(-56.5,-28)">
  <path style="marker-start:none;marker-end:url(#Arrow1Lend);" fill="none" d="m458.46,66,0,71.24" stroke="#000"/>
  <path style="marker-start:none;marker-end:url(#Arrow1Lend);" fill="none" d="m487.54,329,0-83.02" stroke="#000"/>
  <rect rx="6.1162" ry="18" height="36" width="59.09" stroke="#616161" y="138.74" x="259.64" stroke-width="3px" fill="#d3f5d6"/>
  <text font-family="Courier New" font-size="12px" stroke="#000000" y="138.74001" x="259.63699" stroke-width="0px" fill="#000000">
   <tspan font-size="12px" fill="#000000" style="text-anchor:middle;text-align:center;" stroke="#000000" y="162.74001" x="289.1821" font-family="&apos;Courier" text-align="center">33009</tspan>
  </text>
  <rect rx="6.1162" ry="18" height="36" width="59.09" stroke="#616161" y="138.74" x="175" stroke-width="3px" fill="#d3f5d6"/>
  <text font-family="Courier New" font-size="12px" stroke="#000000" y="138.74001" x="175" stroke-width="0px" fill="#000000">
   <tspan font-size="12px" fill="#000000" style="text-anchor:middle;text-align:center;" stroke="#000000" y="162.74001" x="204.5451" font-family="&apos;Courier" text-align="center">1edee</tspan>
  </text>
  <path style="marker-start:none;marker-end:url(#Arrow1Lend);" fill="none" d="m258.14,156.74-22.547,0" stroke="#000"/>
  <path style="marker-end:url(#Arrow1Lend);marker-start:none;" d="M88.866,156.25,57,155.74" stroke="#000" stroke-dasharray="3, 3" fill="none"/>
  <rect height="36" width="70.022" stroke="#616161" y="75" x="169.53" stroke-width="2px" fill="#EEE"/>
  <text font-family="Luxi Sans" font-size="10px" stroke="#cccccc" y="75" x="169.534" stroke-width="0px" fill="#cccccc">
   <tspan font-size="10px" fill="#777777" style="text-anchor:middle;text-align:center;" stroke="#777777" y="98" x="204.5451" font-family="&apos;LucidaGrande" text-align="center">master</tspan>
  </text>
  <path style="marker-start:none;marker-end:url(#Arrow1Lend);" fill="none" d="m204.54,112,0,25.24" stroke="#000"/>
  <rect rx="6.1162" ry="18" height="36" width="59.09" stroke="#616161" y="138.74" x="90.363" stroke-width="3px" fill="#d3f5d6"/>
  <text font-family="Courier New" font-size="12px" stroke="#000000" y="138.74001" x="90.362999" stroke-width="0px" fill="#000000">
   <tspan font-size="12px" fill="#000000" style="text-anchor:middle;text-align:center;" stroke="#000000" y="162.74001" x="119.9081" font-family="&apos;Courier" text-align="center">4b078</tspan>
  </text>
  <path style="marker-start:none;marker-end:url(#Arrow1Lend);" fill="none" d="m173.5,156.74-22.547,0" stroke="#000"/>
  <rect rx="6.1162" ry="18" height="36" width="59.09" stroke="#616161" y="208.48" x="281.27" stroke-width="3px" fill="#d3f5d6"/>
  <text font-family="Courier New" font-size="12px" stroke="#000000" y="208.48" x="281.27399" stroke-width="0px" fill="#000000">
   <tspan font-size="12px" fill="#000000" style="text-anchor:middle;text-align:center;" stroke="#000000" y="232.48" x="310.81909" font-family="&apos;Courier" text-align="center">e5b0f</tspan>
  </text>
  <rect rx="6.1162" ry="18" height="36" width="59.09" stroke="#616161" y="208.48" x="365.91" stroke-width="3px" fill="#d3f5d6"/>
  <text font-family="Courier New" font-size="12px" stroke="#000000" y="208.48" x="365.91101" stroke-width="0px" fill="#000000">
   <tspan font-size="12px" fill="#000000" style="text-anchor:middle;text-align:center;" stroke="#000000" y="232.48" x="395.45609" font-family="&apos;Courier" text-align="center">85127</tspan>
  </text>
  <path style="marker-start:none;marker-end:url(#Arrow1Lend);" fill="none" d="m364.41,226.48-22.547,0" stroke="#000"/>
  <path style="marker-start:none;marker-end:url(#Arrow1Lend);" fill="none" d="m284.96,209.51-54.56-35.804" stroke="#000"/>
  <rect height="36" width="70.022" stroke="#616161" y="75" x="423.45" stroke-width="2px" fill="#EEE"/>
  <text font-family="Luxi Sans" font-size="10px" stroke="#cccccc" y="75" x="423.44501" stroke-width="0px" fill="#cccccc">
   <tspan font-size="10px" fill="#777777" style="text-anchor:middle;text-align:center;" stroke="#777777" y="98" x="458.45609" font-family="&apos;LucidaGrande" text-align="center">featureA</tspan>
  </text>
  <path style="marker-start:none;marker-end:url(#Arrow1Lend);" fill="none" d="m458.46,112,0,25.24" stroke="#000"/>
  <rect height="36" width="70.022" stroke="#616161" y="276.5" x="452.53" stroke-width="2px" fill="#EEE"/>
  <text font-family="Luxi Sans" font-size="10px" stroke="#cccccc" y="276.5" x="452.534" stroke-width="0px" fill="#cccccc">
   <tspan font-size="10px" fill="#777777" style="text-anchor:middle;text-align:center;" stroke="#777777" y="299.5" x="487.5451" font-family="&apos;LucidaGrande" text-align="center">featureB</tspan>
  </text>
  <path style="marker-start:none;marker-end:url(#Arrow1Lend);" fill="none" d="m487.54,275.5,0-29.52" stroke="#000"/>
  <rect rx="6.1162" ry="18" height="36" width="59.09" stroke="#616161" y="138.74" x="344.27" stroke-width="3px" fill="#d3f5d6"/>
  <text font-family="Courier New" font-size="12px" stroke="#000000" y="138.74001" x="344.27399" stroke-width="0px" fill="#000000">
   <tspan font-size="12px" fill="#000000" style="text-anchor:middle;text-align:center;" stroke="#000000" y="162.74001" x="373.81909" font-family="&apos;Courier" text-align="center">aad88</tspan>
  </text>
  <path style="marker-start:none;marker-end:url(#Arrow1Lend);" fill="none" d="m342.77,156.74-22.547,0" stroke="#000"/>
  <rect rx="6.1162" ry="18" height="36" width="59.09" stroke="#616161" y="276.5" x="318.91" stroke-width="3px" fill="#d3f5d6"/>
  <text font-family="Courier New" font-size="12px" stroke="#000000" y="276.5" x="318.91" stroke-width="0px" fill="#000000">
   <tspan font-size="12px" fill="#000000" style="text-anchor:middle;text-align:center;" stroke="#000000" y="300.5" x="348.45511" font-family="&apos;Courier" text-align="center">fba9a</tspan>
  </text>
  <path style="marker-start:none;marker-end:url(#Arrow1Lend);" fill="none" d="M321.52,278.82,248,236,215.14,176.06" stroke="#000"/>
  <rect rx="6.1162" ry="18" height="36" width="59.09" stroke="#616161" y="208.48" x="458" stroke-width="3px" fill="#acc7b1"/>
  <text font-family="Courier New" font-size="12px" stroke="#000000" y="208.48" x="458" stroke-width="0px" fill="#000000">
   <tspan font-size="12px" fill="#000000" style="text-anchor:middle;text-align:center;" stroke="#000000" y="232.48" x="487.5451" font-family="&apos;Courier" text-align="center">cd685</tspan>
  </text>
  <path style="marker-start:none;marker-end:url(#Arrow1Lend);" fill="none" d="m459.43,240.23-82.866,40.524" stroke="#000"/>
  <path style="marker-start:none;marker-end:url(#Arrow1Lend);" fill="none" d="m456.5,226.48-29.999,0" stroke="#000"/>
  <rect height="36" width="108.19" stroke="#616161" y="330" x="433.45" stroke-width="2px" fill="#EEE"/>
  <text font-family="Luxi Sans" font-size="10px" stroke="#cccccc" y="330" x="433.45099" stroke-width="0px" fill="#cccccc">
   <tspan font-size="10px" fill="#777777" style="text-anchor:middle;text-align:center;" stroke="#777777" y="353" x="487.54501" font-family="&apos;LucidaGrande" text-align="center">origin/featureBee</tspan>
  </text>
  <rect height="36" width="93.466" stroke="#616161" y="29" x="411.72" stroke-width="2px" fill="#EEE"/>
  <text font-family="Luxi Sans" font-size="10px" stroke="#cccccc" y="29" x="411.72299" stroke-width="0px" fill="#cccccc">
   <tspan font-size="10px" fill="#777777" style="text-anchor:middle;text-align:center;" stroke="#777777" y="52" x="458.45599" font-family="&apos;LucidaGrande" text-align="center">origin/featureA</tspan>
  </text>
  <rect rx="6.1162" ry="18" height="36" width="59.09" stroke="#616161" y="138.74" x="428.91" stroke-width="3px" fill="#d3f5d6"/>
  <text font-family="Courier New" font-size="12px" stroke="#000000" y="138.74001" x="428.91101" stroke-width="0px" fill="#000000">
   <tspan font-size="12px" fill="#000000" style="text-anchor:middle;text-align:center;" stroke="#000000" y="162.74001" x="458.45609" font-family="&apos;Courier" text-align="center">774b3</tspan>
  </text>
  <path style="marker-start:none;marker-end:url(#Arrow1Lend);" fill="none" d="m427.41,156.74-22.547,0" stroke="#000"/>
  <rect rx="6.1162" ry="18" height="36" width="59.09" stroke="#616161" y="138.74" x="538.69" stroke-width="3px" fill="#acc7b1"/>
  <text font-family="Courier New" font-size="12px" stroke="#000000" y="138.74001" x="538.68799" stroke-width="0px" fill="#000000">
   <tspan font-size="12px" fill="#000000" style="text-anchor:middle;text-align:center;" stroke="#000000" y="162.74001" x="568.23309" font-family="&apos;Courier" text-align="center">5399e</tspan>
  </text>
  <path style="marker-start:none;marker-end:url(#Arrow1Lend);" fill="none" d="m537.19,156.74-47.687,0" stroke="#000"/>
  <path style="marker-start:none;marker-end:url(#Arrow1Lend);" fill="none" d="m546.28,175.72-36.772,31.782" stroke="#000"/>
  <rect height="36" width="82.466" stroke="#616161" y="75" x="527" stroke-width="2px" fill="#EEE"/>
  <text font-family="Luxi Sans" font-size="10px" stroke="#cccccc" y="75" x="527" stroke-width="0px" fill="#cccccc">
   <tspan font-size="10px" fill="#777777" style="text-anchor:middle;text-align:center;" stroke="#777777" y="98" x="568.23303" font-family="&apos;LucidaGrande" text-align="center">origin/master</tspan>
  </text>
  <path style="marker-start:none;marker-end:url(#Arrow1Lend);" fill="none" d="m568.23,112,0,25.24" stroke="#000"/>
 </g>
</svg>

<?xml version="1.0" encoding="utf-8"?>
<svg xmlns="http://www.w3.org/2000/svg" xmlns:xlink="http://www.w3.org/1999/xlink">
	<defs>
		<marker id="Arrow1Lend" orient="auto" refX="0.0" refY="0.0" style="overflow:visible;">
			
              
			<path d="M -10,0.0 L -10.0,-2.0 L 0.0,0.0 L -10.0,2.0 z " id="path3666" style="fill-rule:evenodd;stroke:#000000;stroke-width:1.0px;marker-start:none;"/>
			
            
		</marker>
	</defs>
	<g style="stroke:#000000;fill:#fff">
		<path d="M 458.456,66.0 L 458.456,137.24" id="1392" style="marker-start:none;stroke:#000000;marker-end:url(#Arrow1Lend);fill:none"/>
		<path d="M 487.545,329.0 L 487.545,245.98" id="1390" style="marker-start:none;stroke:#000000;marker-end:url(#Arrow1Lend);fill:none"/>
		<rect height="36.0" id="1342" rx="6.1162089889" ry="18.0" style="stroke:#616161;stroke-width:3.000000px;fill:#d3f5d6" width="59.0902" x="259.637" y="138.74"/>
		<text id="1342_text" style="fill:#000000;stroke:#000000;stroke-width:0px;font-family: Courier New;font-size:12px" x="259.637" y="138.74">
			<tspan fill="#000000" font-family="Courier;" font-size="12.0px" id="1342_line1" stroke="#000000" text-align="center" text-anchor="middle" x="289.1821" y="162.74">
				33009
			</tspan>
		</text>
		<rect height="36.0" id="1344" rx="6.1162089889" ry="18.0" style="stroke:#616161;stroke-width:3.000000px;fill:#d3f5d6" width="59.0902" x="175.0" y="138.74"/>
		<text id="1344_text" style="fill:#000000;stroke:#000000;stroke-width:0px;font-family: Courier New;font-size:12px" x="175.0" y="138.74">
			<tspan fill="#000000" font-family="Courier;" font-size="12.0px" id="1344_line1" stroke="#000000" text-align="center" text-anchor="middle" x="204.5451" y="162.74">
				1edee
			</tspan>
		</text>
		<path d="M 258.137,156.74 L 235.59,156.74" id="1347" style="marker-start:none;stroke:#000000;marker-end:url(#Arrow1Lend);fill:none"/>
		<path d="M 88.8661,156.247 L 57.0,155.74" id="1349" style="marker-start:none;stroke:#000000;marker-end:url(#Arrow1Lend);stroke-dasharray:3 3;fill:none"/>
		<rect height="36.0" id="1350" style="stroke:#616161;stroke-width:2.000000px;fill:#eeeeee" width="70.0222" x="169.534" y="75.0"/>
		<text id="1350_text" style="fill:#cccccc;stroke:#cccccc;stroke-width:0px;font-family: Luxi Sans;font-size:10px" x="169.534" y="75.0">
			<tspan fill="#777777" font-family="LucidaGrande;" font-size="10.0px" id="1350_line1" stroke="#777777" text-align="center" text-anchor="middle" x="204.5451" y="98.0">
				master
			</tspan>
		</text>
		<path d="M 204.545,112.0 L 204.545,137.24" id="1351" style="marker-start:none;stroke:#000000;marker-end:url(#Arrow1Lend);fill:none"/>
		<rect height="36.0" id="1356" rx="6.1162089889" ry="18.0" style="stroke:#616161;stroke-width:3.000000px;fill:#d3f5d6" width="59.0902" x="90.363" y="138.74"/>
		<text id="1356_text" style="fill:#000000;stroke:#000000;stroke-width:0px;font-family: Courier New;font-size:12px" x="90.363" y="138.74">
			<tspan fill="#000000" font-family="Courier;" font-size="12.0px" id="1356_line1" stroke="#000000" text-align="center" text-anchor="middle" x="119.9081" y="162.74">
				4b078
			</tspan>
		</text>
		<path d="M 173.5,156.74 L 150.953,156.74" id="1357" style="marker-start:none;stroke:#000000;marker-end:url(#Arrow1Lend);fill:none"/>
		<rect height="36.0" id="1343" rx="6.1162089889" ry="18.0" style="stroke:#616161;stroke-width:3.000000px;fill:#d3f5d6" width="59.0902" x="281.274" y="208.48"/>
		<text id="1343_text" style="fill:#000000;stroke:#000000;stroke-width:0px;font-family: Courier New;font-size:12px" x="281.274" y="208.48">
			<tspan fill="#000000" font-family="Courier;" font-size="12.0px" id="1343_line1" stroke="#000000" text-align="center" text-anchor="middle" x="310.8191" y="232.48">
				e5b0f
			</tspan>
		</text>
		<rect height="36.0" id="1371" rx="6.1162089889" ry="18.0" style="stroke:#616161;stroke-width:3.000000px;fill:#d3f5d6" width="59.0902" x="365.911" y="208.48"/>
		<text id="1371_text" style="fill:#000000;stroke:#000000;stroke-width:0px;font-family: Courier New;font-size:12px" x="365.911" y="208.48">
			<tspan fill="#000000" font-family="Courier;" font-size="12.0px" id="1371_line1" stroke="#000000" text-align="center" text-anchor="middle" x="395.4561" y="232.48">
				85127
			</tspan>
		</text>
		<path d="M 364.411,226.48 L 341.864,226.48" id="1372" style="marker-start:none;stroke:#000000;marker-end:url(#Arrow1Lend);fill:none"/>
		<path d="M 284.962,209.512 L 230.402,173.708" id="1373" style="marker-start:none;stroke:#000000;marker-end:url(#Arrow1Lend);fill:none"/>
		<rect height="36.0" id="1378" style="stroke:#616161;stroke-width:2.000000px;fill:#eeeeee" width="70.0222" x="423.445" y="75.0"/>
		<text id="1378_text" style="fill:#cccccc;stroke:#cccccc;stroke-width:0px;font-family: Luxi Sans;font-size:10px" x="423.445" y="75.0">
			<tspan fill="#777777" font-family="LucidaGrande;" font-size="10.0px" id="1378_line1" stroke="#777777" text-align="center" text-anchor="middle" x="458.4561" y="98.0">
				featureA
			</tspan>
		</text>
		<path d="M 458.456,112.0 L 458.456,137.24" id="1379" style="marker-start:none;stroke:#000000;marker-end:url(#Arrow1Lend);fill:none"/>
		<rect height="36.0" id="1380" style="stroke:#616161;stroke-width:2.000000px;fill:#eeeeee" width="70.0222" x="452.534" y="276.5"/>
		<text id="1380_text" style="fill:#cccccc;stroke:#cccccc;stroke-width:0px;font-family: Luxi Sans;font-size:10px" x="452.534" y="276.5">
			<tspan fill="#777777" font-family="LucidaGrande;" font-size="10.0px" id="1380_line1" stroke="#777777" text-align="center" text-anchor="middle" x="487.5451" y="299.5">
				featureB
			</tspan>
		</text>
		<path d="M 487.545,275.5 L 487.545,245.98" id="1381" style="marker-start:none;stroke:#000000;marker-end:url(#Arrow1Lend);fill:none"/>
		<rect height="36.0" id="1382" rx="6.1162089889" ry="18.0" style="stroke:#616161;stroke-width:3.000000px;fill:#d3f5d6" width="59.0902" x="344.274" y="138.74"/>
		<text id="1382_text" style="fill:#000000;stroke:#000000;stroke-width:0px;font-family: Courier New;font-size:12px" x="344.274" y="138.74">
			<tspan fill="#000000" font-family="Courier;" font-size="12.0px" id="1382_line1" stroke="#000000" text-align="center" text-anchor="middle" x="373.8191" y="162.74">
				aad88
			</tspan>
		</text>
		<path d="M 342.774,156.74 L 320.227,156.74" id="1383" style="marker-start:none;stroke:#000000;marker-end:url(#Arrow1Lend);fill:none"/>
		<rect height="36.0" id="1384" rx="6.1162089889" ry="18.0" style="stroke:#616161;stroke-width:3.000000px;fill:#d3f5d6" width="59.0902" x="318.91" y="276.5"/>
		<text id="1384_text" style="fill:#000000;stroke:#000000;stroke-width:0px;font-family: Courier New;font-size:12px" x="318.91" y="276.5">
			<tspan fill="#000000" font-family="Courier;" font-size="12.0px" id="1384_line1" stroke="#000000" text-align="center" text-anchor="middle" x="348.4551" y="300.5">
				fba9a
			</tspan>
		</text>
		<path d="M 321.525,278.817 L 248.0,236.0  L 215.135,176.055" id="1385" style="marker-start:none;stroke:#000000;marker-end:url(#Arrow1Lend);fill:none"/>
		<rect height="36.0" id="1386" rx="6.1162089889" ry="18.0" style="stroke:#616161;stroke-width:3.000000px;fill:#acc7b1" width="59.0902" x="458.0" y="208.48"/>
		<text id="1386_text" style="fill:#000000;stroke:#000000;stroke-width:0px;font-family: Courier New;font-size:12px" x="458.0" y="208.48">
			<tspan fill="#000000" font-family="Courier;" font-size="12.0px" id="1386_line1" stroke="#000000" text-align="center" text-anchor="middle" x="487.5451" y="232.48">
				cd685
			</tspan>
		</text>
		<path d="M 459.433,240.228 L 376.567,280.752" id="1387" style="marker-start:none;stroke:#000000;marker-end:url(#Arrow1Lend);fill:none"/>
		<path d="M 456.5,226.48 L 426.501,226.48" id="1388" style="marker-start:none;stroke:#000000;marker-end:url(#Arrow1Lend);fill:none"/>
		<rect height="36.0" id="1389" style="stroke:#616161;stroke-width:2.000000px;fill:#eeeeee" width="108.188" x="433.451" y="330.0"/>
		<text id="1389_text" style="fill:#cccccc;stroke:#cccccc;stroke-width:0px;font-family: Luxi Sans;font-size:10px" x="433.451" y="330.0">
			<tspan fill="#777777" font-family="LucidaGrande;" font-size="10.0px" id="1389_line1" stroke="#777777" text-align="center" text-anchor="middle" x="487.545" y="353.0">
				origin/featureBee
			</tspan>
		</text>
		<rect height="36.0" id="1391" style="stroke:#616161;stroke-width:2.000000px;fill:#eeeeee" width="93.466" x="411.723" y="29.0"/>
		<text id="1391_text" style="fill:#cccccc;stroke:#cccccc;stroke-width:0px;font-family: Luxi Sans;font-size:10px" x="411.723" y="29.0">
			<tspan fill="#777777" font-family="LucidaGrande;" font-size="10.0px" id="1391_line1" stroke="#777777" text-align="center" text-anchor="middle" x="458.456" y="52.0">
				origin/featureA
			</tspan>
		</text>
		<rect height="36.0" id="1393" rx="6.1162089889" ry="18.0" style="stroke:#616161;stroke-width:3.000000px;fill:#d3f5d6" width="59.0902" x="428.911" y="138.74"/>
		<text id="1393_text" style="fill:#000000;stroke:#000000;stroke-width:0px;font-family: Courier New;font-size:12px" x="428.911" y="138.74">
			<tspan fill="#000000" font-family="Courier;" font-size="12.0px" id="1393_line1" stroke="#000000" text-align="center" text-anchor="middle" x="458.4561" y="162.74">
				774b3
			</tspan>
		</text>
		<path d="M 427.411,156.74 L 404.864,156.74" id="1394" style="marker-start:none;stroke:#000000;marker-end:url(#Arrow1Lend);fill:none"/>
		<rect height="36.0" id="1395" rx="6.1162089889" ry="18.0" style="stroke:#616161;stroke-width:3.000000px;fill:#acc7b1" width="59.0902" x="538.688" y="138.74"/>
		<text id="1395_text" style="fill:#000000;stroke:#000000;stroke-width:0px;font-family: Courier New;font-size:12px" x="538.688" y="138.74">
			<tspan fill="#000000" font-family="Courier;" font-size="12.0px" id="1395_line1" stroke="#000000" text-align="center" text-anchor="middle" x="568.2331" y="162.74">
				5399e
			</tspan>
		</text>
		<path d="M 537.188,156.74 L 489.501,156.74" id="1396" style="marker-start:none;stroke:#000000;marker-end:url(#Arrow1Lend);fill:none"/>
		<path d="M 546.275,175.719 L 509.503,207.501" id="1397" style="marker-start:none;stroke:#000000;marker-end:url(#Arrow1Lend);fill:none"/>
		<rect height="36.0" id="1398" style="stroke:#616161;stroke-width:2.000000px;fill:#eeeeee" width="82.4661" x="527.0" y="75.0"/>
		<text id="1398_text" style="fill:#cccccc;stroke:#cccccc;stroke-width:0px;font-family: Luxi Sans;font-size:10px" x="527.0" y="75.0">
			<tspan fill="#777777" font-family="LucidaGrande;" font-size="10.0px" id="1398_line1" stroke="#777777" text-align="center" text-anchor="middle" x="568.23305" y="98.0">
				origin/master
			</tspan>
		</text>
		<path d="M 568.233,112.0 L 568.233,137.24" id="1399" style="marker-start:none;stroke:#000000;marker-end:url(#Arrow1Lend);fill:none"/>
	</g>
</svg>
